X:1
T:Good Night and Good Morning
T:Good Night and Good Morning
T:Homer Alvan Rodeheaver
T:Lizzie DeArmond, circa 1922
T:Public Domain Courtesy of the Cyber Hymnal™
T:Public Domain Courtesy of the Cyber Hymnal™
C:Homer Alvan Rodeheaver
Z:Public Domain
Z:Courtesy of the Cyber Hymnal™
%%score ( 1 2 ) ( 3 4 )
L:1/8
Q:1/4=155
M:6/4
K:Db
V:1 treble 
V:2 treble 
V:3 bass 
V:4 bass 
V:1
 [FA]2 | [FA]2 [DF]2 [EG]2 [FA]2 [GB]2 [FA]2 | [FA]2 [EG]2 [=DF]2 [EG]4 [EG]2 | %3
w: 1.~When|comes to the wear- y a|bless- èd re- lease, When|
w: 2.~When|fad- eth the day and dark|sha- dows draw nigh, With|
w: 3.~When|home lights we see shin- ing|bright- ly a- bove, Where|
 [EG]2 [CE]2 [DF]2 [EG]2 [FA]2 [EG]2 | [EG]2 [DF]2 [D=E]2 [DF]4 D2 | %5
w: up- ward we pass to His|king- dom of peace, When|
w: Christ close at hand, it is|not death to die; He’ll|
w: we shall be soon, through His|won- der- ful love, We’ll|
 [DF]2 [DF]2 [EG]2 [FA]2 [DF]2 D2 | [DG]2 [DG]2 [DA]2 [DB]4 [GB]2 | %7
w: free from the woes that on|earth we must bear, We’ll|
w: wipe ev- ery tear, roll a-|way ev- ery care; We’ll|
w: praise Him Who called us His|heav- en to share, We’ll|
 [FA]2 [=E=G]2 [EB]2 [FA]4 D[D_G] | [DF]2 D2 [CE]2 D4 ||"^Refrain" [FA]2 | %10
w: say “good night” here, but “good|morn- ing” up there.||
w: say “good night” here, but “good|morn- ing” up there.|Good|
w: say “good night” here, but “good|morn- ing” up there.||
 [FA]2 [DF]2 [FA]2 [Fd]4 [FA]2 [FA]2 [EG]3 [=DF] [EG]4 [EG]2 | [EG]2 [CE]2 [EG]2 [Gc]4 [GB]2 | %12
w: ||
w: morn- ing up there where Christ is the light, Good|morn- ing up there where|
w: ||
 [GB]2 [FA]2 [=E=G]2 [FA]4 [DF][D_E] | D2 [DF]2 [FA]2 [Fd]4 [FA][DF] | %14
w: ||
w: com- eth no night; When we|step from this earth to God’s|
w: ||
 [DG]2 [DG]2 [DA]2 [DB]4 [GB]2 | [FA]2 [=E=G]2 [EB]2 [FA]4 [_Gc][Ad] | [=Ge]2 [GB]2 [_Gc]2 [Fd]4 |] %17
w: |||
w: Heav- en so fair, We’ll|say “good night” here but “good|morn- ing” up there.|
w: |||
V:2
 x2 | x12 | x12 | x12 | x10 D2 | x10 D2 | x12 | x10 D x | x2 D2 D4 x2 || x2 | x24 | x12 | x12 | %13
 D2 x10 | x12 | x12 | x10 |] %17
V:3
 [D,D]2 | [D,D]2 [D,A,]2 [D,A,]2 [D,D]2 [D,D]2 [D,D]2 | A,2 A,2 A,2 A,4 A,2 | %3
 [A,,A,]2 [A,,A,]2 [A,,A,]2 [A,,A,]2 [A,,A,]2 [A,,A,]2 | [D,A,]2 [D,A,]2 [D,=G,]2 [D,A,]4 [D,F,]2 | %5
 [D,A,]2 [D,A,]2 [D,A,]2 [D,D]2 [D,A,]2 [_C,F,]2 | [B,,G,]2 [B,,G,]2 [A,,F,]2 [G,,G,]4 [G,,D]2 | %7
 [D,D]2 [D,D]2 [D,D]2 [D,D]4 [F,A,][G,B,] | A,2 [A,,F,]2 [A,,G,]2 [D,F,]4 || [D,D]2 | %10
 [D,D]2 [D,A,]2 [D,D]2 [D,A,]4 [D,A,]2 [A,,A,]2 [A,,A,]3 [A,,A,] [A,,A,]4 [A,,A,]2 | %11
 [A,,A,]2 [A,,A,]2 [A,,A,]2 [A,,E]4 [A,,C]2 | [D,D]2 [D,D]2 [D,D]2 [D,D]4 [D,A,][D,G,] | %13
 [D,F,]2 [D,A,]2 [D,D]2 [D,A,]4 [D,D][_C,A,] | [B,,G,]2 [B,,G,]2 [A,,F,]2 [G,,G,]4 [G,,D]2 | %15
 [D,D]2 [D,D]2 [D,D]2 [D,D]4 [E,A,][F,D] | [E,D]2 [E,E]2 A,2 [D,A,]4 |] %17
V:4
 x2 | x12 | A,2 A,2 A,2 A,4 A,2 | x12 | x12 | x12 | x12 | x12 | A,2 x8 || x2 | x24 | x12 | x12 | %13
 x12 | x12 | x12 | x4 A,2 x4 |] %17

